resources/svg/attachment.svg

<svg xmlns="http://www.w3.org/2000/svg" viewBox="0 0 15 15" fill="currentColor"><path d="M0 4.5V0H1V4.5C1 5.32843 1.67157 6 2.5 6C3.32843 6 4 5.32843 4 4.5V1.5C4 1.22386 3.77614 1 3.5 1C3.22386 1 3 1.22386 3 1.5V5H2V1.5C2 0.671573 2.67157 0 3.5 0C4.32843 0 5 0.671573 5 1.5V4.5C5 5.88071 3.88071 7 2.5 7C1.11929 7 0 5.88071 0 4.5Z" fill="black"/><path fill-rule="evenodd" clip-rule="evenodd" d="M12.5 0H6V4.5C6 6.433 4.433 8 2.5 8H1V13.5C1 14.3284 1.67157 15 2.5 15H12.5C13.3284 15 14 14.3284 14 13.5V1.5C14 0.671573 13.3284 0 12.5 0ZM11 4H7V5H11V4ZM11 7H7V8H11V7ZM4 10H11V11H4V10Z" fill="black"/></svg>

<svg xmlns="http://www.w3.org/2000/svg" viewBox="0 0 15 15" fill="currentColor"><path d="M0 4.5V0h1v4.5a1.5 1.5 0 103 0v-3a.5.5 0 00-1 0V5H2V1.5a1.5 1.5 0 113 0v3a2.5 2.5 0 01-5 0z" fill="currentColor"/><path fill-rule="evenodd" clip-rule="evenodd" d="M12.5 0H6v4.5A3.5 3.5 0 012.5 8H1v5.5A1.5 1.5 0 002.5 15h10a1.5 1.5 0 001.5-1.5v-12A1.5 1.5 0 0012.5 0zM11 4H7v1h4V4zm0 3H7v1h4V7zm-7 3h7v1H4v-1z" fill="currentColor"/></svg>
